Papirus/16x16/apps/distributor-logo-bunsenlabs.svg

<svg width="16" height="16" version="1.1" xmlns="http://www.w3.org/2000/svg">
 <circle cx="8" cy="8" r="8" style="fill:#282722"/>
 <path d="m9 2s-4 2-4 6c0 1.5457327 0.4502542 2.934747 1 4.066406v-1.066406c0-2 2-3 2-3s1 2 1 3c0 2-1 4-1 4s3-2 3-6c0-3-2-5-2-5z" style="fill:#fbb620"/>
</svg>

<svg xmlns="http://www.w3.org/2000/svg" width="16" height="16" version="1.1">
 <circle style="fill:#4f4f4f" cx="8" cy="8" r="8"/>
 <path style="fill:#fbb620" d="M 9,2 C 9,2 5,4 5,8 5,9.5457 5.4503,10.935 6,12.066 V 11 C 6,9 8,8 8,8 8,8 9,10 9,11 9,13 8,15 8,15 8,15 11,13 11,9 11,6 9,4 9,4 Z"/>
</svg>
